X:1
T: The Antrim Lasses
C:
R:Jig
Q:180
K:A
M:6/8
L:1/16
E2|A4E2 A2c2d2|e2d2e2 A2B2A2|=G4D2 G2B2c2|d2c2d2 =G4B2|A4E2 A2B2d2|e4f2 =g2f2g2|e2d2c2 B2c2d2|e2c2A2 A4E2|
A4E2 A2c2d2|e2d2e2 A2B2A2|=G4D2 G2B2c2|d2c2d2 =G4B2|A4E2 A2B2d2|e4f2 =g2f2g2|e2d2c2 B2c2d2|e2c2A2 A4a2|
a2g2a2 A4a2|a2g2a2 A4=g2|=g2f2g2 =G4g2|=g2f2g2 =G4B2|c4c2 d4d2|e4f2 =g2f2g2|e2d2c2 B2c2d2|e2c2A2 A4a2|
a2g2a2 A4a2|a2g2a2 A4=g2|=g2f2g2 =G4g2|=g2f2g2 =G4B2|c4c2 d4d2|e4f2 =g2f2g2|e2d2c2 B2c2d2|e2c2A2 A4||
